**kern	**kern	**dynam
*part1	*part1	*part1
*staff2	*staff1	*
*I"Piano	*	*
*clefF4	*clefG2	*
*k[f#c#g#d#]	*k[f#c#g#d#]	*
=1	=1	=1
*^	*^	*
*	*	*	*^	*
8F#L	2C#	8.eeL	8.eL	2e\ 2a#X	.
8F#	.	.	.	.	.
.	.	16eeK	16eK	.	.
8F#	.	8dd#	8d#	.	.
8F#J	.	8eeJ	8eJ	.	.
*	*	*	*v	*v	*
=	=	=	=	=
8.BBBL	2BBB	8bb^^	2an^ 2dd# 2ff#	.
.	.	8r	.	.
16BBK	.	.	.	.
8BB	.	4r	.	.
8BBJ	.	.	.	.
*	*	*v	*v	*
=	=	=	=
!	!	!	!LO:DY:a
!	!	!	!LO:DY:a
8.BBL	[2BBB	(((2A [2B 2d# 2f#	pp >
16BBK	.	.	.
8BB	.	.	.
[8BBJ	.	.	.
=	=	=	=
8.BBL]	2BBB]	8G#))) 8B] 8e 8g#	]
.	.	8r	.
16BBK	.	.	.
8BB	.	4r	.
8BBJ	.	.	.
=	=	=	=
*	*	*^	*
8.BBL	2BBB	8.eeL	2gn 2b-X 2cc#	pp
16BBK	.	16eeK	.	.
8BB	.	8dd#X	.	.
8BBJ	.	8eeJ	.	.
=	=	=	=	=
8.BBL	2BBB	8bb^^	2a^ 2dd# 2ff#	.
.	.	8rdd	.	.
16BBK	.	.	.	.
8BB	.	4rdd	.	.
8BBJ	.	.	.	.
*	*	*v	*v	*
=	=	=	=
8.BBL	2BBB	(((2A [2B 2d# 2f#	pp
16BBK	.	.	.
8BB	.	.	.
8BBJ	.	.	.
=	=	=	=
8.BBL	2BBB	8G#))) 8B] 8e 8g#	.
.	.	8r	.
16BBK	.	.	.
8BB	.	4r	.
8BBJ	.	.	.
*v	*v	*	*
=	=	=
*-	*-	*-
!!!system-decoration: {(s1,s2)}
